!!!ONB: MCCC : ILB0164_02 : Extracted Monophonic Melody
!!!COM: Beethoven, Ludwig van
!!!OPR: Piano Sonata No.3
!!!OMV: 2
!!!SCT: Op.2 No.3
!!!ODT: 1794///
**kern
*thru
*Ipiano
*staff1
*clefG2
*k[f#c#g#d#]
*E:
*M2/4
*MM50
=1
16.g#
32f#
16g#
16a
8f#
8r
=2
16.e
32d#
16e
16f#
8d#
8r
=3
16e
16f#
16g#
16a
8f#
16r
16b
=4
16b
16a
16g#
32cc#
32a
8f#
8r
=5
16.a
32g#
16a
16b
8g#
8r
=6
16.f#
32e#
16f#
16g#
8e#
16r
16a#[
=7
16a#]
16b
16r
16g#[
16g#]
16a
16r
16f#
=8
8e
8f#
8g#
8r
=9
8ff#
16bb
16r
8ee
16aa
16r
=10
16.r
32b#
32cc#
32g#
32.a
64f#
8c#
8d#
=11
*k[f#]
*e:
32r
32e
32g
32b
32cc
32b
32e
32b
32r
32e
32g
32b
32cc
32b
32e
32b
=12
32r
32d#
32a
32b
32cc
32b
32d#
32b
32r
32d#
32f#
32b
32cc
32b
32d#
32b
=13
32r
32e
32g
32b
32cc
32b
32g
32e
32r
32a
32f#
32cc
32g
32b
32a
32cc
=14
32r
32d
32g
32b
32cc
32b
32g
32d
32r
32d
32g
32dd
32cc#
32dd
32g
32d
=15
32r
32f#
32a
32cc
32b
32cc
32a
32f#
32r
32f#
32a
32ee-
32dd
32ee-
32a
32f#
=16
32r
32d
32g
32b
32cc#
32dd
32b
32g
32f#
32a
32g
32b
32a
32cc
32b
32dd
=17
32r
32e
32a
32cc
32dd#
32ee
32cc
32a
32g#
32b
32a
32cc
32b
32dd
32cc
32ee
=18
32r
32B
32d
32g
32a
32g
32B
32g
32r
32A
32c
32f#
32g
32f#
32A
32f#
=19
32r
32B
32d
32g
32a
32g
32B
32g
32r
32B
32d
32g
32a
32g
32B
32g
=20
32r
32A
32e
32g
32a
32g
32A
32g
32r
32A
32e
32g
32a
32g
32A
32g
=21
32r
32B
32d
32g
32a
32g
32B
32g
32r
16A
32c
32f#
32c
32A
32c
=22
32r
32B
32d
32g
32a
32g
32B
32g
32r
32B
32d
32g
32a
32g
32B
32g
=23
32r
32A
32e
32g
32a
32g
32A
32g
32r
32A
32e
32g
32a
32g
32A
32g
=24
32r
16B
32g
32a
32g
32B
32g
32r
16A
32c
32f#
32c
32A
32c
=25
32r
32B
32d
32g
32a
32g
32B
32g
32r
32A
32B
32d#
32e
32d#
32A
32d#
=26
32r
32G
32B
32e
32f#
32e
32G
32e
32r
32G
32B
32e
32f#
32e
32G
32e
=27
32r
32A
32c
32d#
32e
32d#
32A
32d#
32r
32c
32d#
32f#
32g
32f#
32c
32f#
=28
32r
32B
32d
32f
32e
32f
32d
32B
32r
32B
32G#
32f
32A
32e
32d
32g#
=29
32r
32A
32c
32e
32f
32e
32c
32A
32r
32A
32c
32e
32f
32e
32c
32A
=30
32r
32G#
32d
32e
32f
32e
32d
32G#
32r
32G#
32B
32e
32f
32e
32B
32G#
=31
32r
32G
32A#
32e
32f#
32g
32e
32c#
32r
32c#
32A#
32g
32B
32f#
32e
32a#
=32
32r
32B
32d
32f#
32a#
32b
32B
32b
32r
32B
32d
32b
32a#
32b
32d
32b
=33
32r
32c
32g
32b
32cc
32b
32c
32b
32r
32c
32e
32b
32cc
32b
32e
32b
=34
32r
32c
32d#
32a
32cc
32a
32d#
32a
32r
32f#
32d#
32cc
32e
32b
32a
32dd#
=35
32r
32e
32g
32ee
32dd#
32ee
32e
32ee
32r
32e
32g
32ee
32dd#
32ee
32e
32ee
=36
32r
32A#
32c#
32e
32f#
32g
32e
32c#
32r
32A#
32c#
32g
32f#
32g
32A#
32g
=37
32r
32d#
32f#
32b
32a#
32b
32f#
32d#
32r
32d#
32f#
32a
32g
32a
32f#
32d#
=38
32r
32e
32g
32b
32a#
32b
32g
32e
32r
32e
32g
32cc#
32g
32cc#
32g
32e
=39
32r
32d#
32f#
32a
32g
32a
32f#
32d#
32r
32B
32f#
32a
32g#
32a
32f#
32B
=40
32r
32B
32e
32g
32f#
32g
32e
32B
32r
32c#
32e
32g
32f#
32g
32e
32c#
=41
32r
32d#
32f#
32b
32a#
32b
32d#
32b
32r
32B
32d#
32b
32a#
32b
32d#
32b
=42
32r
32B
32d#
32b
32cc#
32b
32d#
32b
32r
32B
32d#
32a
32b
32a
32B
32a
=43
*k[f#c#g#d#]
*E:
16.g#
32f#
16g#
16a
8f#
8r
=44
16.e
32d#
16e
16f#
8d#
16r
16B
=45
16e
16f#
16g#
16a
8f#
16r
16b
=46
16b
16a
16g#
32cc#
32a
8f#
8r
=47
16.a
32g#
16a
16b
8g#
8r
=48
16.f#
32e#
16f#
16g#
8e#
16r
16a#[
=49
16a#]
16b
16r
16g#[
16g#]
16a
16r
16f#
=50
8e
8f#
8g#
8r
=51
8ff#
16bb
16r
8ee
16aa
16r
=52
16.r
32b#
32cc#
32g#
32.a
64f#
8c#
8d#
=53
16.e
32d
16e
16f
8d
8r
=54
16.f
32e
16f
16g
8e
8r
=55
32r
32c
32e
32g
32a
32g
32c
32g
32r
32c
32e
32g
32a
32g
32c
32g
=56
32r
32B
32f
32g#
32a
32g#
32B
32g#
32r
32d
32f
32b
32cc
32b
32d
32b
=57
32r
32c
32e
32cc
32b
32cc
32e
32cc
32r
32e
32g
32ee
32dd#
32ee
32g
32e
=58
32r
32e
32g#
32b
32a#
32b
32g#
32e
32r
32A
32d#
32f#
32e#
32f#
32d#
32A
=59
32r
32G#
32B
32e
32f#
32e
32G#
32e
32r
32G#
32B
32e
32f#
32e
32G#
32e
=60
32r
32A
32c#
32e
32f#
32e
32A
32e
32r
32A#
32c#
32e
32f#
32e
32A#
32e
=61
32r
16B
32e
32g#
32e
32G#
32e
32r
16A
32d#
32f#
32d#
32A
32d#
=62
32r
32G#
32B
32e
32f#
32e
32G#
32e
32r
32G#
32B
32e
32f#
32e
32G#
32e
=63
32r
32A
32c#
32e
32f#
32e
32A
32e
32r
32G
32A#
32e
32f#
32e
32G
32e
=64
32r
16G#
32e
32f#
32e
32G#
32e
32r
16A
32d#
32f#
32d#
32A
32d#
=65
32r
32G#
32B
32d#
32f#
32e
32G#
32e
32r
16A
32d#
32f#
32d#
32A
32d#
=66
32r
32G#
32B
32e
32g#
32e
32b
32g#
32ee
32b
32gg#
32ee
32bb
32aa#
32aa
32ff#
=67
16.gg#
32ff#
16gg#
16aa
8ff#
8r
=68
16.ee
64ff#
64ee
32dd#
32ee
32gg#
32ff#
16ee
16dd#
16.r
32b
=69
32ee
64r
64b
32ff#
64r
64b
32gg#
64r
64b
16aa
8ff#
32r
64r
64dd#
32bb
64r
64ee
=70
32bb
64r
64b
32aa
64r
64b
32gg#
64r
64cc#
32.ccc#
64aa
8ff#
8r
=71
16.aa
32gg#
16aa
16bb
8gg#
16.r
[32ff##
=72
4ff##]
8gg#:
16r
16aa#[
=73
16aa#]
16bb
16r
16gg#[
16gg#]
16aa
16r
32.aa
64ff#
=74
16cc#
32.ee
64dd#
16dd#
32.ff#
64ee
8ee
8r
=75
8ee
16dd#
16r
8dd
16cc#
16bb#
=76
16ccc#
16gg#
16aa
16ff#
16ee
16dd#
16cc#
16dd#
=77
16ee
16b
16b
16b
16b
16b
16b
16b
=78
16b
16b
16b
16b
16b
16b
16b
16b
=79
16b
16bb
16bb
16bb
16bb
16eee[
32eee]
32ddd#
32ccc#
32bb#
=80
16ddd#
8.ccc#
16r
16ccc#
16ddd#
16eee
=81
4BB[
32BB]
32C#
32D#
32E
32F#
32G#
32A
32D#
=82
4F#
8E
8r
==
*-
